X:6549
T:The Blarney Pilgrim
O:england
M:6/8
L:1/8
S:Tommy Peoples, Donegal (fiddle)
R:Jig
D:From a 70's demo tape
N:As played
H:All the 'A3's are unisons
K:G
DED DEG | A3-ABc | BAG AGE | GEA GED | +D3A,3+-DEG | (3.A.B.AG ABc |
{c}BAG AGE | (3.G.G.ED D3-| DED DEG | (3ABAG ABc | (3.B.d.BG (3.A.A.AE |
GEA GED | +D3A,3+-DEG | (3.A.B.AG ABc | {c}BAG AGE | GED D3 |: ~d3 dBG |
(3.A.A.GA BGE | ~d3 dBG | AGA {GF}G3 | (3gfge dBG | AGA (3.B.B.GE |
{BA}B2G AGE |1 GAG {GF}G3 :|2 GAG GED || (3.B.d.BD (3.A.A.AD | (3.A.A.AD ABc |
{c}BAG AGE | GEA GED | A3 (3.B.d.BG | (3.A.A.AG ABc | {c}BAG AGE | GED D3 |
+AD+(3.D.D.D +BD+(3.D.D.D | ADD ABc | {c}BAG AGE | (3.G.G.EA GED |
(3.A.B.AA (3.B.d.BG | (3.A.B.AG ABc | {c}BAG AGE | GED +D3A,3+ ||


